X: 1
T: Johan p\aa Snippen
T: Renki-jussi sottiisi
%T: Skottish efter Hilbert Thomsen, \AAlborg
O: Trad, all of northern Europe
N: Variant of the tune "Simple Gifts"
R: shottish
Z: John Chambers <jc:trillian.mit.edu>
M: 4/4
L: 1/8
K: D
|: "D"d2 de f2 fg | a2 ag f4 | "A7"e2 ef g2 fe | "D"d2 cB "(A7)"A4 \
|  "D"d2 de f2 fg | a2 ag f4 | "A7"e2 ef g2 fe | "D"d2 [f2d2] d4 :|
|: "G"d2 gb d2 gb | d2 gd b4 | "D"d2 fa d2 fa | d2 fd a4 \
| "A7"A2 ce A2 ce | g2 gf e4 | A2 ce A>g fe |1 "D"f2 fe d4 :|2 "D"d2 [f2d2] d4 |]

%%sep 1 1 500

